X: 491
M: C|
L: 1/8
K: F
V: 1
e |\
f>gag fefc | d/d/d b>a gdde |
f>gag fefc | dfcf TA>GFe |\
f>gag fefc | d/d/d ba gdde |\
fca(g f)(cd)(A | B)GcB TA>GF |]
V: 2 clef=bass middle=d
z |\
f2f2 f2f2 | g2g2 d2d2 |\
f2f2 f2f2 | B2c2 F2F :|
z |\
f2f2 f2f2 | g2g2 g2g2 |
f2f2 f2f2 | B2c2 F2F2 |\
f2f2 f2f2 | g2g2 g2g2 |\
f2g2 a2b2 | c'2c2 f2F |]

